assets/svg/icon_restorekey.svg

<svg width="24" height="24" viewBox="0 0 24 24" fill="none" xmlns="http://www.w3.org/2000/svg">
<path d="M7.56874 12.3362C7.56874 11.9854 7.28437 11.7011 6.93359 11.7011H5.1586C4.80782 11.7011 4.52344 11.9854 4.52344 12.3362C4.52344 12.687 4.80782 12.9714 5.1586 12.9714H6.93359C7.28437 12.9714 7.56874 12.687 7.56874 12.3362Z" fill="#494949"/>
<path fill-rule="evenodd" clip-rule="evenodd" d="M15.4723 3C17.5993 3 19.3235 4.72426 19.3235 6.85123C19.3235 8.97821 17.5993 10.7025 15.4723 10.7025C13.3453 10.7025 11.6211 8.97821 11.6211 6.85123C11.6211 4.72426 13.3453 3 15.4723 3ZM18.1073 6.85123C18.1073 5.39593 16.9276 4.21618 15.4723 4.21618C14.017 4.21618 12.8373 5.39593 12.8373 6.85123C12.8373 8.30654 14.017 9.48629 15.4723 9.48629C16.9276 9.48629 18.1073 8.30654 18.1073 6.85123Z" fill="#494949"/>
<path fill-rule="evenodd" clip-rule="evenodd" d="M15.4713 11.9224C17.347 11.9224 19.0752 12.3488 20.3559 13.0691C21.6174 13.7787 22.5656 14.8542 22.5656 16.179L22.5657 16.2617C22.5666 17.2037 22.5677 18.386 21.5307 19.2304C21.0203 19.646 20.3064 19.9415 19.3418 20.1368C18.3744 20.3326 17.1137 20.4356 15.4713 20.4356C13.8288 20.4356 12.568 20.3326 11.6007 20.1368C10.6361 19.9415 9.92207 19.646 9.41177 19.2304C8.37477 18.386 8.3759 17.2037 8.3768 16.2617L8.37688 16.179C8.37688 14.8542 9.32501 13.7787 10.5866 13.0691C11.8672 12.3488 13.5954 11.9224 15.4713 11.9224ZM21.3494 16.179C21.3494 15.4888 20.8456 14.7399 19.7596 14.1291C18.6926 13.5289 17.1777 13.1385 15.4713 13.1385C13.7647 13.1385 12.2498 13.5289 11.1828 14.1291C10.0968 14.7399 9.59306 15.4888 9.59306 16.179C9.59306 17.2393 9.62573 17.8362 10.1797 18.2874C10.4801 18.5321 10.9823 18.7708 11.842 18.9448C12.6989 19.1183 13.8705 19.2194 15.4713 19.2194C17.0719 19.2194 18.2435 19.1183 19.1005 18.9448C19.9601 18.7708 20.4623 18.5321 20.7628 18.2874C21.3167 17.8362 21.3494 17.2393 21.3494 16.179Z" fill="#494949"/>
<path d="M6.36571 17.3264C5.03158 17.3202 3.8261 16.9955 2.94891 16.2142C2.0547 15.4179 1.59961 14.2354 1.59961 12.7182V11.1082C1.59961 9.59116 2.0547 8.40862 2.94891 7.61231C3.83459 6.82348 5.05495 6.5 6.4045 6.5H9.56571V7.70215H6.4045C5.24715 7.70215 4.37842 7.97974 3.80175 8.49324C3.2336 8.99925 2.85306 9.82029 2.85306 11.1082V12.7182C2.85306 14.0061 3.2336 14.8272 3.80175 15.3332C4.37196 15.841 5.22772 16.1181 6.36571 16.1242V17.3264Z" fill="#494949"/>
<path d="M5.76415 16.725C5.76415 17.0564 6.03278 17.325 6.36415 17.325C6.69552 17.325 6.96415 17.0564 6.96415 16.725C6.96415 16.3936 6.69552 16.125 6.36415 16.125C6.03278 16.125 5.76415 16.3936 5.76415 16.725Z" fill="#494949"/>
<path d="M9.00048 7.1C9.00048 7.43137 9.26911 7.7 9.60048 7.7C9.93185 7.7 10.2005 7.43137 10.2005 7.1C10.2005 6.76863 9.93185 6.5 9.60048 6.5C9.26911 6.5 9.00048 6.76863 9.00048 7.1Z" fill="#494949"/>
<path d="M9.84838 6.99985C10.1078 6.76379 10.0856 6.7613 9.84951 6.50183L7.98146 4.6162C7.7454 4.35674 7.34367 4.33777 7.08422 4.57384C6.82476 4.8099 6.80579 5.21162 7.04185 5.47108L8.64696 7.00024C8.88303 7.25971 9.58892 7.23591 9.84838 6.99985Z" fill="#494949"/>
<path d="M9.99672 7.02398C10.2562 7.26004 10.095 7.00049 9.99534 7.56066L8.12981 9.40763C7.89374 9.66709 7.49202 9.68605 7.23256 9.44999C6.9731 9.21393 6.95413 8.8122 7.1902 8.55275L8.7953 7.02358C9.03137 6.76412 9.73726 6.78792 9.99672 7.02398Z" fill="#494949"/>
</svg>

<svg xmlns="http://www.w3.org/2000/svg" width="24" height="24" fill="none"><path fill="#494949" d="M7.569 12.336a.635.635 0 0 0-.635-.635H5.159a.635.635 0 1 0 0 1.27h1.775c.35 0 .635-.284.635-.635"/><path fill="#494949" fill-rule="evenodd" d="M15.472 3a3.851 3.851 0 1 1 0 7.702 3.851 3.851 0 0 1 0-7.702m2.635 3.851a2.635 2.635 0 1 0-5.27 0 2.635 2.635 0 0 0 5.27 0M15.471 11.922c1.876 0 3.604.427 4.885 1.147 1.261.71 2.21 1.785 2.21 3.11v.083c0 .942.002 2.124-1.035 2.968-.51.416-1.225.712-2.19.907-.967.196-2.227.299-3.87.299-1.642 0-2.903-.103-3.87-.3-.965-.194-1.679-.49-2.19-.906-1.036-.844-1.035-2.026-1.034-2.968v-.083c0-1.325.948-2.4 2.21-3.11 1.28-.72 3.008-1.147 4.884-1.147m5.878 4.257c0-.69-.503-1.44-1.59-2.05-1.066-.6-2.581-.99-4.288-.99-1.706 0-3.221.39-4.288.99-1.086.61-1.59 1.36-1.59 2.05 0 1.06.033 1.657.587 2.108.3.245.802.484 1.662.658.857.173 2.028.274 3.63.274 1.6 0 2.772-.1 3.629-.274.86-.174 1.361-.413 1.662-.658.554-.45.586-1.048.586-2.108" clip-rule="evenodd"/><path fill="#494949" d="M6.366 17.326c-1.334-.006-2.54-.33-3.417-1.112-.894-.796-1.35-1.979-1.35-3.496v-1.61c0-1.517.456-2.7 1.35-3.496C3.835 6.823 5.055 6.5 6.405 6.5h3.16v1.202h-3.16c-1.158 0-2.027.278-2.603.791-.568.506-.949 1.327-.949 2.615v1.61c0 1.288.38 2.11.949 2.615.57.508 1.426.785 2.564.791z"/><path fill="#494949" d="M5.764 16.725a.6.6 0 1 0 1.2 0 .6.6 0 0 0-1.2 0M9 7.1a.6.6 0 1 0 1.2 0 .6.6 0 0 0-1.2 0"/><path fill="#494949" d="M9.848 7c.26-.236.238-.239.002-.498L7.98 4.616a.635.635 0 0 0-.94.855l1.606 1.53c.236.259.942.235 1.201-.001"/><path fill="#494949" d="M9.997 7.024c.26.236.098-.024-.002.537L8.13 9.408a.635.635 0 0 1-.94-.855l1.605-1.53c.236-.259.942-.235 1.202.001"/></svg>
